X:1
T:The Lakes of Pontchartrain
M:3/4
L:1/4
K:C
 G,| C2 A| G G A| E2 D| C G, G,| A, C2| C2 D| C3-| C E- F| G2 G| E- F G|\
 A2 c| A- G E| G2 E| E- F G| A3-| A z A| G2 E| G A B| c2 c| B- A G|\
 A2 c| A- G E| G3-| G G- A| C2 A| G3/2 A/2 A| E2 D| C3/2 G,/2 G,| A,2 C|\
 C2 D| C3-| C z||
